src/img/icons/file.svg

<?xml version="1.0" encoding="UTF-8"?>
<svg width="23px" height="29px" viewBox="0 0 23 29" version="1.1" xmlns="http://www.w3.org/2000/svg" xmlns:xlink="http://www.w3.org/1999/xlink">
    <!-- Generator: Sketch 52.3 (67297) - http://www.bohemiancoding.com/sketch -->
    <title>Shape</title>
    <desc>Created with Sketch.</desc>
    <g id="Page-1" stroke="none" stroke-width="1" fill="none" fill-rule="evenodd">
        <path d="M15.5317084,0 L0,0 L0,29 L22.5208334,29 L22.5208334,7.0499 L15.5317084,0 Z M15.8125,1.6501 L20.8849584,6.76666667 L15.8125,6.76666667 L15.8125,1.6501 Z M0.958333337,28.0333333 L0.958333337,0.966666667 L14.8541667,0.966666667 L14.8541667,7.73333333 L21.5625,7.73333333 L21.5625,28.0333333 L0.958333337,28.0333333 Z" id="Shape" fill="#606060" fill-rule="nonzero"></path>
    </g>
</svg>

<svg width="23" height="29" xmlns="http://www.w3.org/2000/svg"><path d="M15.532 0H0v29h22.52V7.05L15.533 0zm.28 1.65l5.073 5.117h-5.073V1.65zM.959 28.033V.967h13.896v6.766h6.709v20.3H.957z" fill="#606060"/></svg>
